X:1
T:Tyrol, CMD
T:Tyrol, CMD
T:Tyrolean Carol
T:Public Domain Courtesy of the Cyber Hymnal™
C:Tyrolean Carol
Z:Public Domain
Z:Courtesy of the Cyber Hymnal™
%%score ( 1 2 ) ( 3 4 )
L:1/8
Q:1/4=115
M:4/4
K:A
V:1 treble 
V:2 treble 
V:3 bass 
V:4 bass 
V:1
 E2 | [EA]2 [EA]2 [Cc]2 [EA]2 | [EG]2 (BG) E2 [Ff]2 | [Ae]2 [Cc]2 [Fd]2 G2 | A4 E2 [DE]2 | %5
 [CA]2 [EA]2 [Ec]2 [EA]2 | [EG]2 (BG) E2 [Gf]2 | [Ae]2 [Cc]2 [Fd]2 G2 | [CA]4 z2 [Ec]2 | %9
 [EB]3 [EG] E2 [Ed]2 | [Ec]3 [EB] [EA]2 E2 | [Ed]3 E [Ec]3 [CE] | B4 E2 [DE]2 | %13
 [CA]2 [EA]2 [Ec]2 [EA]2 | [EG]2 (BG) E2 [Gf]2 | [Ae]2 [Cc]2 [Fd]2 G2 | [CA]6 |] %17
V:2
 E2 | x8 | x2 B,2 E2 x2 | x6 (ED) | C2 D2 x4 | x8 | x2 B,2 E2 x2 | x6 (ED) | x8 | x4 E2 x2 | %10
 x6 E2 | x3 E x4 | E2 F2 x4 | x8 | x2 B,2 E2 x2 | x6 (ED) | x6 |] %17
V:3
 E,2 | [A,C]2 [A,,C]2 [A,,A,]2 [C,A,]2 | [E,B,]2 [E,G,]2 [E,G,]2 [D,B,]2 | %3
 [C,C]2 [F,A,]2 [B,,B,]2 [E,B,]2 | (A,2 B,2 C2) [G,B,]2 | A,2 [A,,C]2 [A,,A,]2 [C,A,]2 | %6
 [E,B,]2 [E,G,]2 [E,G,]2 [D,B,]2 | [C,C]2 [F,A,]2 [B,,B,]2 [E,B,]2 | [A,,A,]4 z2 A,2 | %9
 [E,G,]3 [E,B,] [E,G,]2 [G,B,]2 | A,3 [E,G,] [C,A,]2 [A,C]2 | [B,D]3 [G,B,] [A,C]3 A, | %12
 (G,2 D2 C2) [G,B,]2 | A,2 [A,,C]2 [A,,A,]2 [C,A,]2 | [E,B,]2 [E,G,]2 [E,G,]2 [D,B,]2 | %15
 [C,C]2 [F,A,]2 [B,,B,]2 [E,B,]2 | [A,,A,]6 |] %17
V:4
 E,2 | x8 | x8 | x8 | A,,4 x4 | A,2 x6 | x8 | x8 | x6 A,2 | x8 | A,3 x5 | x7 A, | E,4 x4 | A,2 x6 | %14
 x8 | x8 | x6 |] %17

